X: 199
T: Missa De Beata Marie Virginis (II) Agnus
C: Giovanni Perluigi da Palestrina
L: 1/4
M: 4/2
N: Derived from Agnus_00.krn
V: 1 clef=treble
V: 2 clef=treble
V: 3 clef=treble-8
V: 4 clef=treble-8
V: 5 clef=bass
K: C
[V:1] G4d4- | 
[V:2] z4D4 | 
[V:3] z8 | 
[V:4] z8 | 
[V:5] z8 | 
[V:1] d2B2c4 | 
[V:2] G4E2F2 | 
[V:3] z8 | 
[V:4] z8 | 
[V:5] z8 | 
[V:1] B2c2d2B2 | 
[V:2] G2E2D2G2- | 
[V:3] z8 | 
[V:4] z4G4 | 
[V:5] z8 | 
[V:1] A4d4 | 
[V:2] G2^FEF2G2- | 
[V:3] z8 | 
[V:4] d6B2 | 
[V:5] z8 | 
[V:1] e2g2>f2e2- | 
[V:2] GFE2D2G2 | 
[V:3] z8 | 
[V:4] c4B2c2 | 
[V:5] z8 | 
[V:1] edd4c2 | 
[V:2] F2D2E2A2- | 
[V:3] z8 | 
[V:4] d2B2A4 | 
[V:5] z8 | 
[V:1] B4A4 | 
[V:2] AGG4^F2 | 
[V:3] G4d4- | 
[V:4] d4z4 | 
[V:5] z4D,4 | 
[V:1] B4z4 | 
[V:2] G6FE | 
[V:3] d2B2c4 | 
[V:4] d4g2a2- | 
[V:5] G,4E,2F,2 | 
[V:1] G4d4 | 
[V:2] D2G,2z4 | 
[V:3] B2c2d2B2 | 
[V:4] agg2f2d2 | 
[V:5] G,2E,2D,2D2- | 
[V:1] e4d2G2 | 
[V:2] z8 | 
[V:3] A2a2>g2g2- | 
[V:4] a2A2d2e2- | 
[V:5] D2C2B,2C2 | 
[V:1] A2c4B2 | 
[V:2] C4G4- | 
[V:3] g2f2e2d2 | 
[V:4] e2c2z2d2 | 
[V:5] A,4G,4 | 
[V:1] c6A2 | 
[V:2] G2E2F4 | 
[V:3] c4z4 | 
[V:4] efgea2f2 | 
[V:5] z8 | 
[V:1] c4B2AG | 
[V:2] E2F2G2E2 | 
[V:3] z8 | 
[V:4] g2a2>g2g2- | 
[V:5] z8 | 
[V:1] A4G4- | 
[V:2] D4z2C2- | 
[V:3] z2d2e4 | 
[V:4] g2^f2g2e2 | 
[V:5] z8 | 
[V:1] G4z4 | 
[V:2] C2B,2A,2A2 | 
[V:3] g2g4f2- | 
[V:4] d4c4 | 
[V:5] G,4A,4 | 
[V:1] z8 | 
[V:2] G6G2 | 
[V:3] f2e2d2e2- | 
[V:4] z8 | 
[V:5] C2C2_B,2G,2 | 
[V:1] z4z2A2 | 
[V:2] F2G2A4 | 
[V:3] edd4^c2 | 
[V:4] z2d2e4 | 
[V:5] _B,4A,4 | 
[V:1] B4d2d2 | 
[V:2] z4z2A2 | 
[V:3] d2B2A4- | 
[V:4] g2g2f2d2 | 
[V:5] G,2G,2D,E,F,G, | 
[V:1] c2A2c2B2- | 
[V:2] A4G2G2 | 
[V:3] A4z4 | 
[V:4] f2e4d2- | 
[V:5] A,B,C4G,2 | 
[V:1] BAA4G2 | 
[V:2] F2E4D2- | 
[V:3] z8 | 
[V:4] d2c2d4 | 
[V:5] A,4_B,4 | 
[V:1] A8 | 
[V:2] D2^C2D4 | 
[V:3] z2e2^f4 | 
[V:4] e4d4 | 
[V:5] A,4D,2D2 | 
[V:1] z4z2d2 | 
[V:2] z2G2A4 | 
[V:3] g4z4 | 
[V:4] G2g4^f2 | 
[V:5] B,2E2D4 | 
[V:1] e4g2g2 | 
[V:2] c2c2_B2G2 | 
[V:3] z2c2d2e2 | 
[V:4] g8 | 
[V:5] C4G,4 | 
[V:1] f2d2f2e2- | 
[V:2] _B2A4GF | 
[V:3] d3c/ B/ABc2- | 
[V:4] z8 | 
[V:5] z8 | 
[V:1] edd4^c2 | 
[V:2] G4A4 | 
[V:3] cG_B2A4 | 
[V:4] z2d2e4 | 
[V:5] z8 | 
[V:1] d4c4- | 
[V:2] _B4A4 | 
[V:3] z8 | 
[V:4] g2g4f2- | 
[V:5] G,4A,4 | 
[V:1] c8 | 
[V:2] G8 | 
[V:3] z2c2e4 | 
[V:4] f2e2>d2ec | 
[V:5] C6C2 | 
[V:1] z8 | 
[V:2] z8 | 
[V:3] g2g2f2d2 | 
[V:4] d2e2>d2d2- | 
[V:5] _B,2G,2B,4 | 
[V:1] z8 | 
[V:2] z8 | 
[V:3] f2e2>d2d2- | 
[V:4] d2c2_B2A2 | 
[V:5] A,4G,2F,2 | 
[V:1] z4z2d2- | 
[V:2] z2G4F2 | 
[V:3] d2^c2d4 | 
[V:4] G4A4- | 
[V:5] E,4D,4 | 
[V:1] d2c2B2G2 | 
[V:2] E8 | 
[V:3] z4z2g2- | 
[V:4] A4z4 | 
[V:5] z8 | 
[V:1] A4B2c2- | 
[V:2] D4G2A2- | 
[V:3] g2f2e2c2 | 
[V:4] z8 | 
[V:5] z8 | 
[V:1] cBG2A4 | 
[V:2] AGG4^F2 | 
[V:3] e4d3c | 
[V:4] z4z2d2- | 
[V:5] z8 | 
[V:1] G8 | 
[V:2] G4z2D2- | 
[V:3] B2e2d3c | 
[V:4] d2c2B4 | 
[V:5] z4G,4- | 
[V:1] z4z2g2- | 
[V:2] D2D2E4 | 
[V:3] B2A2G4 | 
[V:4] G2A2B2c2 | 
[V:5] G,2F,2E,2C,2 | 
[V:1] g2f2e2c2 | 
[V:2] D4z2A2- | 
[V:3] z2d2c4 | 
[V:4] A4G2AG | 
[V:5] D,4E,2F,2- | 
[V:1] d2e2f4 | 
[V:2] A2G2F2D2 | 
[V:3] F2G2A2F2 | 
[V:4] ABc4B2 | 
[V:5] F,2E,2D,4 | 
[V:1] e4d4 | 
[V:2] E2c4B2 | 
[V:3] G4z2g2- | 
[V:4] c4z4 | 
[V:5] C,D,E,F,G,4 | 
[V:1] d4c4 | 
[V:2] A6E2 | 
[V:3] g2f2e2c2 | 
[V:4] z8 | 
[V:5] D,4A,4 | 
[V:1] A2c2d4 | 
[V:2] ^F2G2A4- | 
[V:3] d2e2d4 | 
[V:4] z2g4f2- | 
[V:5] z4z2D2- | 
[V:1] e4z4 | 
[V:2] A4G3F | 
[V:3] A4z4 | 
[V:4] f2e2>d2d2- | 
[V:5] D2C2B,2G,2 | 
[V:1] z2A4G2 | 
[V:2] E4D4 | 
[V:3] z4z2d2- | 
[V:4] d2^c2d4 | 
[V:5] A,2>G,2F,2G,2 | 
[V:1] F2E2GABc | 
[V:2] z4z2G2- | 
[V:3] d2c2B2G2 | 
[V:4] a4d4 | 
[V:5] A,4G,4 | 
[V:1] d4e4 | 
[V:2] G2F2E4 | 
[V:3] A2B2c3B | 
[V:4] z2d2G4 | 
[V:5] D,4C,4 | 
[V:1] d8 | 
[V:2] ^F2G4F2 | 
[V:3] A2G2A4 | 
[V:4] d2d2d4 | 
[V:5] D,8 | 
[V:1] B8- | 
[V:2] G8- | 
[V:3] G8- | 
[V:4] d8- | 
[V:5] G,8- | 
[V:1] B8 |]  
[V:2] G8 |]  
[V:3] G8 |]  
[V:4] d8 |]  
[V:5] G,8 |]  

